X:1
T: Round Pond
N:
C:
S:Play  3  times
A:
O:
R:
M:6/8
K:D
I:speed 150
%W: A1
% voice 1 (1 lines, 37 notes)
K:D
M:6/8
L:1/16
f4 f2 a2 f2 e2 d4 d2 A4 B2 =c4 c2 B2 A2 G2 F4 G2 A4 d2 |B2 G2 B2 A4 A2 G2 E2 G2 F4 F2 E2 F2 G2 F2 G2 A2 B4 c2 d6 |
%W: A2
% voice 1 (1 lines, 37 notes)
f4 f2 a2 f2 e2 d4 d2 A4 B2 =c4 c2 B2 A2 G2 F4 G2 A4 d2 |B2 G2 B2 A4 A2 G2 E2 G2 F4 F2 E2 F2 G2 F2 G2 A2 B4 c2 d6 |
%W: B1                                                      B2                                             B3
% voice 1 (1 lines, 49 notes)
D4 E2 F4 F2 G2 F2 E2 F2 G2 A2 B2 A2 G2 A4 d2 e2 d2 c2 d6 ||F4 G2 A4 A2 B2 A2 G2 A2 B2 c2 d2 c2 B2 A2 d2 f2 g2 f2 e2 f6 ||a4 a2 d2 c2 d2 e4 d2 c2 e2 a2
%W:                                 B4                                             B5
% voice 1 (1 lines, 48 notes)
g2 f2 e2 f2 g2 a2 A4 A2 d6 ||D4 E2 F4 F2 G2 F2 E2 F2 G2 A2 B2 A2 G2 A4 d2 e2 d2 c2 d6 ||F4 G2 A4 A2 B2 A2 G2 A2 B2 c2 d2 c2 B2 A2 d2 f2 g2 f2 e2 d6 ||
